X:1
T:Tebe poem
T:Vi synger til deg
T:Dmitri Bortnjanski
%%score [ 1 2 3 4 ]
L:1/8
Q:1/4=72
M:4/4
K:C
V:1 treble nm="Soprano" snm="S"
V:2 treble nm="Alto" snm="A"
V:3 treble-8 nm="Tenor" snm="T"
V:4 bass nm="Bass" snm="B"
V:1
"^Adagio" z4 z2 E2 |: E6 E2 | (E4 D2) G2 | F6 G2 | F2 F2 E2 E2 | G2 G2 ^G2 G2 | A8 | G4 F4 |1 %8
w: Te-|be po-|em * te-|be bla-|go- slo- vim, te-|be bla- go- da-|rim|Go- spo-|
 E6 E2 :|2 E6 z2 |: E2 E E F2 G2 | F3 F F4 | ^F2 F F G2 A2 | G3 G G4 | ^G2 G G A2 B2 | A3 A A4 | %16
w: di. Te-|di.|I mo- lim ti sja|Bo- zje nasj,|I mo- lim ti sja|Bo- zje nasj,|I mo- lim ti sja|Bo- zje nasj,|
 G4 F4 | E6 z2 :: F4 E4 | F4 E4 | D4 ^D4 | E8 :| %22
w: Bo- zje|nasj.|Mo- lim|ti sja|Bo- zje|nasj.|
V:2
 z4 z2 C2 |: C6 C2 | (C4 B,2) G,2 | D6 D2 | C2 C2 C2 C2 | E2 E2 E2 E2 | (E4 F4) | E4 D4 |1 %8
w: Te-|be po-|em _ te-|be bla-|go- slo- vim, te-|be bla- go- da-|rim _|Go- spo-|
 C6 C2 :|2 C6 z2 |: C2 C C C2 C2 | C3 C C4 | D2 D D D2 D2 | D3 D D4 | E2 E E E2 E2 | E3 E ^D4 | %16
w: di. Te-|di.|I mo- lim ti sja|Bo- zje nasj.|I mo- lim ti sja|Bo- zje nasj,|I mo- lim ti sja|Bo- zje nasj,|
 E4 D4 | C6 z2 :: C4 C4 | C4 C4 | C4 C4 | C8 :| %22
w: Bo- zje|nasj.|Mo- lim|ti sja|Bo- zje|nasj.|
V:3
 z4 z2 G2 |: G6 G2 | G6 G2 | B6 B2 | A2 _A2 G2 G2 | c2 c2 c2 d2 | c8 | c4 B4 |1 G6 G2 :|2 G6 z2 |: %10
w: Te-|be po-|em te-|be bla-|go- slo- vim, te-|be bla- go- da-|rim|Go- spo-|di. Te-|di.|
 G2 G G A2 _B2 | A3 A A4 | A2 A A B2 c2 | B3 B B4 | B2 e d c2 d2 | c3 c c4 | c4 B4 | G6 z2 :: %18
w: I mo- lim ti sja|Bo- zje nasj,|I mo- lim ti sja|Bo- zje nasj,|I mo- lim ti sja|Bo- zje nasj.|Bo- zje|nasj.|
 A4 G4 | (B2 A2) G4 | A4 A4 | G8 :| %22
w: Mo- lim|ti * sja|Bo- zje|nasj.|
V:4
 z4 z2 C,2 |: C,6 E,2 | (G,4 G,,2) G,2 | G,6 G,2 | C,2 C,2 C,2 C,2 | C,2 (E,G,) C2 B,2 | %6
w: Te-|be po-|em _ te-|be bla-|go- slo- vim, te-|be bla- * go- da-|
 (A,2 G,2 F,4) | G,4 G,,4 |1 C,6 C,2 :|2 C,6 z2 |: C,2 C, C, C,2 E,2 | F,3 F, F,4 | %12
w: rim _ _|Go- spo-|di. Te-|di.|I mo- lim ti sja|Bo- zje nasj,|
 D,2 D, D, D,2 ^F,2 | G,3 G, G,4 | E,2 E, E, E,2 ^G,2 | A,3 G, ^F,4 | G,4 G,,4 | C,6 z2 :: %18
w: I mo- lim ti sja|Bo- zje nasj,|I mo- lim ti sja|Bo- zje nasj.|Bo- zje|nasj.|
 C,4 C,4 | C,4 C,4 | [F,,F,]4 [F,,F,]4 | C,8 :| %22
w: Mo- lim|ti sja|Bo- zje|nasj.|

